src/images/Icon-Password.svg

<?xml version="1.0" encoding="UTF-8"?>
<svg width="45px" height="58px" viewBox="0 0 45 58" version="1.1" xmlns="http://www.w3.org/2000/svg" xmlns:xlink="http://www.w3.org/1999/xlink">
    <!-- Generator: Sketch 50.2 (55047) - http://www.bohemiancoding.com/sketch -->
    <title>Icon-Password</title>
    <desc>Created with Sketch.</desc>
    <defs></defs>
    <g id="Icon-Password" stroke="none" stroke-width="1" fill="none" fill-rule="evenodd">
        <path d="M23.8900371,36.6402224 L25,43.3 L20.2,43.3 L21.3099629,36.6402224 C20.1735627,36.1549829 19.4,35.0380004 19.4,33.7 C19.4,31.9 20.8,30.5 22.6,30.5 C24.4,30.5 25.8,32 25.8,33.7 C25.8,35.0380004 25.0264373,36.1549829 23.8900371,36.6402224 Z M8.3,24.3504196 L8.3,19.3 C8.3,11.4 14.7,5 22.6,5 C30.5,5 36.9,11.4 36.9,19.3 L36.9,24.3504196 C38.7931891,24.9975408 40.2,26.8208785 40.2,28.9 L40.2,48.1 C40.2,50.8 38,52.9 35.4,52.9 L9.8,52.9 C7.2,52.9 5,50.7 5,48.1 L5,28.9 C5,26.8208785 6.40681093,24.9975408 8.3,24.3504196 Z M11.3,24.1 L33.9,24.1 L33.9,19.3 C33.9,13.1 28.8,8 22.6,8 C16.4,8 11.3,13.1 11.3,19.3 L11.3,24.1 Z M9.8,27.3 C8.9,27.3 8.2,28 8.2,28.9 L8.2,48.1 C8.2,49 8.9,49.7 9.8,49.7 L35.4,49.7 C36.3,49.7 37,49 37,48.1 L37,28.9 C37,28 36.3,27.3 35.4,27.3 L9.8,27.3 Z" id="Lock-Icon" fill="#FF5C5D" fill-rule="nonzero"></path>
    </g>
</svg>

<svg viewBox="0 0 45 58" xmlns="http://www.w3.org/2000/svg">
  <path d="M23.89 36.64L25 43.3h-4.8l1.11-6.66c-1.136-.485-1.91-1.602-1.91-2.94 0-1.8 1.4-3.2 3.2-3.2 1.8 0 3.2 1.5 3.2 3.2 0 1.338-.774 2.455-1.91 2.94zM8.3 24.35V19.3C8.3 11.4 14.7 5 22.6 5s14.3 6.4 14.3 14.3v5.05c1.893.648 3.3 2.47 3.3 4.55v19.2c0 2.7-2.2 4.8-4.8 4.8H9.8c-2.6 0-4.8-2.2-4.8-4.8V28.9c0-2.08 1.407-3.902 3.3-4.55zm3-.25h22.6v-4.8C33.9 13.1 28.8 8 22.6 8c-6.2 0-11.3 5.1-11.3 11.3v4.8zm-1.5 3.2c-.9 0-1.6.7-1.6 1.6v19.2c0 .9.7 1.6 1.6 1.6h25.6c.9 0 1.6-.7 1.6-1.6V28.9c0-.9-.7-1.6-1.6-1.6H9.8z" fill="#FF5C5D" fill-rule="nonzero"/>
</svg>
